!!!!SEGMENT: pl-kk--kk-i-319--001_leszczynski-wladyslaw--ave-maris-stella.krn
!!!cenid: 17xx:2118
!!!COM: Lilius, Franciszek
!!!COM-rismID: pe30020509
!!!CDT: ~1600-1657
!!!CNT: Polish
!!!OTL: Ave Maris stella
!!!PDT:
!!!AGN: Sacred
!!!SMS-siglum: PL-Kk
!!!SMS-shelfmark: Kk.I.319
!!!SMS-shelfwork: 001 W
!!!SMS-variant:
!!!SMS-altvar:
!!!NIFC-rismSourceID: 1001146202
!!!NIFC-rismChildID: 1001146204
!!!NIFC-islandoraID: pl-kk:5337
!!!URL-pdf-islandora: https://repozytorium.nifc.pl/islandora/object/pl-kk%3A5337/datastream/PDF/view
!!!URL-scan: https://polish.musicsources.pl/pl/lokalizacje/galeria/rekopisy/5938 @EN{Scan on Polish Music Sources Website} @PL{Skany w portalu Dziedzictwo Muzyki Polskiej w otwartym dostępie}
!!!IIIF:
!!!ONB-nifc: UWAGA: utwory w zbiorze: 1. Ave maris stella, 2. Sanctorum meritis
!!!AIN: 1 alto 1 empty 1 tenor 1 vox
!!!key:
**kern	**text	**text	**text	**kern	**text	**text	**text	**kern	**text	**text	**text	**kern	**text	**text	**text	**text	**text
*part4	*part4	*part4	*part4	*part3	*part3	*part3	*part3	*part2	*part2	*part2	*part2	*part1	*part1	*part1	*part1	*part1	*part1
*staff4	*staff4	*staff4	*staff4	*staff3	*staff3	*staff3	*staff3	*staff2	*staff2	*staff2	*staff2	*staff1	*staff1	*staff1	*staff1	*staff1	*staff1
*	*verse1	*verse2	*verse3	*	*verse1	*verse2	*verse3	*	*verse1	*verse2	*verse3	*	*verse1	*verse1	*verse2	*verse3	*verse4
*Iempty	*	*	*	*Itenor	*	*	*	*Ialto	*	*	*	*Ivox	*	*	*	*	*
*I"Baſso.	*	*	*	*I"Tenore.	*	*	*	*I"Alto.	*	*	*	*I"Canto.	*	*	*	*	*
*I'B	*	*	*	*I'T	*	*	*	*I'A	*	*	*	*I'S	*	*	*	*	*
*clefF4	*	*	*	*clefC4	*	*	*	*clefC3	*	*	*	*clefC1	*	*	*	*	*
*k[]	*	*	*	*k[]	*	*	*	*k[]	*	*	*	*k[]	*	*	*	*	*
*d:	*	*	*	*d:	*	*	*	*d:	*	*	*	*d:	*	*	*	*	*
*M3/1	*	*	*	*M3/1	*	*	*	*M3/1	*	*	*	*M3/1	*	*	*	*	*
=1-	=1-	=1-	=1-	=1-	=1-	=1-	=1-	=1-	=1-	=1-	=1-	=1-	=1-	=1-	=1-	=1-	=1-
*	*	*	*	*	*	*	*	*	*	*	*	*all\right	*	*	*	*	*
!LO:TX:a:t=In Feſtis Beatiſsimae V. M.	!	!	!	!LO:TX:a:t=In Feſtis Beatiſsimae. V. M.	!	!	!	!LO:TX:a:t=In Feſtis Beati ſsimae. V. M.	!	!	!	!LO:TX:a:t=In Feſtis Beati ſsim ae. V. M.	!	!	!	!	!
!	!	!	!	!	!	!	!	!	!	!	!	!LO:TX:t=P:problem=błędnie wpisany tekst 4. zwrotki wykreślony, inną ręką dopisany tekst 3. zwrotki (błędny tekst dopisałam w [[]] - konsultacja z J.I.)	!	!	!	!	!
!LO:TX:t=P:global:problem=oddech/cezura na różnej wysokości	!	!	!	!LO:TX:t=P:global:problem=oddech/cezura na różnej wysokości	!	!	!	!LO:TX:t=P:global:problem=oddech/cezura na różnej wysokości	!	!	!	!LO:TX:t=P:global:problem=oddech/cezura na różnej wysokości	!	!	!	!	!
0D	1. A-	2. Su-	3. Mon-	2A/	1. A-	2. Su-	3. Mon-	0f	1. A-	2. Su-	3. Mon-	0d	.	1. A-	2. Su-	3. Mon-	[[4. Vi-
.	.	.	.	2G/	.	.	.	.	.	.	.	.	.	.	.	.	.
.	.	.	.	2F/	.	.	.	.	.	.	.	.	.	.	.	.	.
.	.	.	.	2E/	.	.	.	.	.	.	.	.	.	.	.	.	.
!	!	!	!	!LO:TX:t=P:problem=kreska pseudotaktowa	!	!	!	!	!	!	!	!LO:TX:t=P:problem=inną ręką dodany łuk	!	!	!	!	!
(2D/	-ue	-mens	-ſtra	[1F#X	-ue	.	-ſtra	1d	-ue	-mens	-ſtra	1a	.	-ue	-mens	-ſtra	-tam
2C/)	.	.	.	.	.	.	.	.	.	.	.	.	.	.	.	.	.
=2-	=2-	=2-	=2-	=2-	=2-	=2-	=2-	=2-	=2-	=2-	=2-	=2-	=2-	=2-	=2-	=2-	=2-
(>1BB	Ma-	il-	te	(>1F#]	.	.	.	(0d	Ma-	il-	te	0b	.	[[Ma-	il-	te	prae-
1GG)	.	.	.	1G)	.	.	.	.	.	.	.	.	.	.	.	.	.
1C	-ris	-lud	eſ-	1E,	Ma-	-mens,	te	1e)	.	.	eſ-	1g	Ma-	-ris]]	-lud	eſ-	-ſta
=3-	=3-	=3-	=3-	=3-	=3-	=3-	=3-	=3-	=3-	=3-	=3-	=3-	=3-	=3-	=3-	=3-	=3-
*2\right	*	*	*	*	*	*	*	*	*	*	*	*	*	*	*	*	*
2F\	ſtel-	A-	-se	2A/	-ris	il-	[eſ]-	0.f	-ris	-lud	-se	1.a	-ris	ſtel-	a-	-se	pu-
2G\	.	.	.	2B/	.	.	.	.	.	.	.	.	.	.	.	.	.
2F\	.	.	.	2A/	.	.	.	.	.	.	.	.	.	.	.	.	.
2E\	.	.	.	2G/	.	.	.	.	.	.	.	4b\	.	.	.	.	.
.	.	.	.	.	.	.	.	.	.	.	.	4cc\	.	.	.	.	.
1D	.	.	.	(2Fny/	.	-lud	-se	.	.	.	.	1dd	.	.	.	.	.
.	.	.	.	2G/)	.	.	.	.	.	.	.	.	.	.	.	.	.
=4-	=4-	=4-	=4-	=4-	=4-	=4-	=4-	=4-	=4-	=4-	=4-	=4-	=4-	=4-	=4-	=4-	=4-
1A	.	.	.	(0A	ſtel-	A-	ma-	(1e	ſtel-	A-	Ma-	(1cc	ſte	.	.	Ma-	.
*lig	*	*	*	*	*	*	*	*	*	*	*	*	*	*	*	*	*
1D	.	.	Ma-	.	.	.	.	1f)	.	.	.	0b)	.	.	.	.	.
1E	.	.	.	1G#X)	.	.	.	1e	.	.	.	.	.	.	.	.	.
*Xlig	*	*	*	*	*	*	*	*	*	*	*	*	*	*	*	*	*
=5-	=5-	=5-	=5-	=5-	=5-	=5-	=5-	=5-	=5-	=5-	=5-	=5-	=5-	=5-	=5-	=5-	=5-
0.AA,	-la,	-ue,	-trem	0.A	-la	-ue	-trem	0.e,	la	-ue	-trem,	0.a,	.	la,	-ue,	-tre(m)	-ram,
=6-	=6-	=6-	=6-	=6-	=6-	=6-	=6-	=6-	=6-	=6-	=6-	=6-	=6-	=6-	=6-	=6-	=6-
0D	De-	Ga-	Su-	1r	.	.	.	0f	De-	Ga-	Su-	0a	.	De-	Ga-	ſu-	i-
.	.	.	.	1A	De-	Ga-	Su-	.	.	.	.	.	.	.	.	.	.
1BB	-i	-bri-	-mat	1B	-i	-bri-	-mat	1d	-i	-bri-	-mat	1d	.	-i	-bri-	-mat	-ter
=7-	=7-	=7-	=7-	=7-	=7-	=7-	=7-	=7-	=7-	=7-	=7-	=7-	=7-	=7-	=7-	=7-	=7-
*	*	*	*	*2\right	*	*	*	*	*	*	*	*	*	*	*	*	*
1.AA	Ma-	-e-	per	2c\	Ma-	-e-	per	(1c	Ma-	-e-	per	2e/	.	Ma-	-e-	per	pa-
.	.	.	.	2B\	.	.	.	.	.	.	.	2d/	.	.	.	.	.
.	.	.	.	2c\	.	.	.	1A)	.	.	.	2e/	.	.	.	.	.
4GG/	.	.	.	2d\	.	.	.	.	.	.	.	2f/	.	.	.	.	.
4FF/	.	.	.	.	.	.	.	.	.	.	.	.	.	.	.	.	.
1EE	-ter	-lis	te	1e	-ter	.	.	1d	-ter	-lis	te	1g	.	.	.	.	.
=8-	=8-	=8-	=8-	=8-	=8-	=8-	=8-	=8-	=8-	=8-	=8-	=8-	=8-	=8-	=8-	=8-	=8-
*	*	*	*	*	*	*	*	*	*	*	*	*col	*	*	*	*	*
1FF	al-	o-	pre-	1d	.	.	.	(<1a	al-	o-	pre-	1f	.	-ter	-lis	te	-ra
(1GG	.	.	.	1d	al-	-lis	te	1b-X)	.	.	.	0e	.	al-	-o-	pre-	tu-
*	*	*	*	*	*	*	*	*	*	*	*	*Xcol	*	*	*	*	*
1AA)	.	.	.	1c	.	o-	pre-	1a	.	.	.	.	.	.	.	.	.
=9-	=9-	=9-	=9-	=9-	=9-	=9-	=9-	=9-	=9-	=9-	=9-	=9-	=9-	=9-	=9-	=9-	=9-
*custos:D	*	*	*	*	*	*	*	*	*	*	*	*	*	*	*	*	*
0.D,	-ma	-re	-ces	0.d	-ma	-re	-ces	0.a,	-ma,	-re	-ces	0.d,	.	-ma	-re,	-ces	-tum,
!LO:LB:g=original	!	!	!	!LO:LB:g=original	!	!	!	!	!	!	!	!	!	!	!	!	!
=10-	=10-	=10-	=10-	=10-	=10-	=10-	=10-	=10-	=10-	=10-	=10-	=10-	=10-	=10-	=10-	=10-	=10-
!	!	!	!	!	!	!	!	!LO:TX:t=P::problem=t. 10-17&colon; 3. zwrotka dopisana inną ręką	!	!	!	!	!	!	!	!	!
(1D	at-	fun-	qui	(1A	at-	fun-	qui	(1f	at-	fun-	[qui	0f	.	at-	fun-	qui	Vt
1AA)	.	.	.	1c)	.	.	.	1c)	.	.	.	.	.	.	.	.	.
[>1C	-que	-da	pro	1Gny	-que	-da	pro	1e	-que	-da	pro	1e	.	-que	-da	pro	ui-
=11-	=11-	=11-	=11-	=11-	=11-	=11-	=11-	=11-	=11-	=11-	=11-	=11-	=11-	=11-	=11-	=11-	=11-
1C]	.	Nos	.	(>1E	sem-	Nos	No-	(1e	sem-	Nos	no-	0g	.	Sem-	Nos	no-	-den-
(>1BB#X	sem-	in	No-	1D)	.	.	.	0g)	.	in	.	.	.	.	.	.	.
1C#X)	.	.	.	1E	-per	in	-bis	.	.	.	.	1a	.	-per	in	-bis	-tes
=12-	=12-	=12-	=12-	=12-	=12-	=12-	=12-	=12-	=12-	=12-	=12-	=12-	=12-	=12-	=12-	=12-	=12-
*	*	*	*	*	*	*	*	*custos:g	*	*	*	*	*	*	*	*	*
1.D	-per	pa-	-bis	1.F	Vir-	pa-	Na-	0.f	-per	pa-	-bis	1.d	.	Vir-	pa-	na-	Je-
2Cny/	Vir-	.	Na-	2E/	.	.	.	.	.	.	.	2e/	.	.	.	.	.
*	*	*	*	*	*	*	*	*	*	*	*	*custos:e	*	*	*	*	*
2AA/	.	.	.	2C/	.	.	.	.	.	.	.	1f	.	.	.	.	.
2BBny/	.	.	.	2D/	.	.	.	.	.	.	.	.	.	.	.	.	.
!	!	!	!	!	!	!	!	!LO:LB:g=original	!	!	!	!LO:LB:g=original	!	!	!	!	!
=13-	=13-	=13-	=13-	=13-	=13-	=13-	=13-	=13-	=13-	=13-	=13-	=13-	=13-	=13-	=13-	=13-	=13-
(>1C	.	.	.	2E/	.	.	.	(<1g	uir-	.	na-	1e	.	.	.	.	.
.	.	.	.	[2c\	.	.	.	.	.	.	.	.	.	.	.	.	.
1FF)	.	.	.	1c]	.	.	.	1a)	.	.	.	0d	.	.	.	.	.
1GG	.	.	.	1B	.	.	.	1g,	-go,	-ce	-t(us),	.	.	.	.	.	.
=14-	=14-	=14-	=14-	=14-	=14-	=14-	=14-	=14-	=14-	=14-	=14-	=14-	=14-	=14-	=14-	=14-	=14-
1C,	-go	-ce	-t(us),	1c,	-go,	-ce,	-t(us),	1g	fe-	mu-	tul-	1c,	.	-go	-ce,	-t(us)	-sum,
1C	fae-	mu-	tul-	1G	fae-	mu-	tul-	1g	-lix	-tans	-lit	1e	.	fe-	mu-	tul-	Sem-
1AA	-lix	-tans	-lit	1A	-lix	-tans	-lit	1c	Cae-	E-	eſ-	1f#X	.	-lix	-tans	-lit	-per
=15-	=15-	=15-	=15-	=15-	=15-	=15-	=15-	=15-	=15-	=15-	=15-	=15-	=15-	=15-	=15-	=15-	=15-
2GG/	Cae-	E-	eſ-	2B\	Cae-	E-	eſ-	1d	-li	-ue	-se	1.g	.	Cae-	E-	eſ-	Col-
2FF/	.	-ue	-se	2A/	.	.	.	.	.	.	.	.	.	.	.	.	.
2GG/	.	.	.	2B\	.	.	.	1g	Por-	No-	tu-	.	.	.	.	.	.
2AA/	.	.	.	2c\	.	.	.	.	.	.	.	(2fny/	.	-li	-ue	-se	.
*	*	*	*	*	*	*	*	*2\right	*	*	*	*	*	*	*	*	*
1BB-X	-li	.	.	1d	.	.	.	2f\	.	.	.	2d/	.	.	.	.	.
.	.	.	.	.	.	.	.	2g\	.	.	.	2e/)	.	.	.	.	.
=16-	=16-	=16-	=16-	=16-	=16-	=16-	=16-	=16-	=16-	=16-	=16-	=16-	=16-	=16-	=16-	=16-	=16-
1FF	.	.	.	1d	-li	-ue	-se	(<1a	.	.	.	1f	.	.	.	.	-lae-
(>1GG	por-	No-	tu-	(1d	por-	No-	tu-	1b-X)	.	.	.	0e;	.	por-	No-	tu-	-te-
1AA)	.	.	.	1c#X)	.	.	.	1a	.	.	.	.	.	.	.	.	.
=17-	=17-	=17-	=17-	=17-	=17-	=17-	=17-	=17-	=17-	=17-	=17-	=17-	=17-	=17-	=17-	=17-	=17-
!	!	!	!	!	!	!	!	!LO:TX:t=P:problem=inną ręką dopisane f#	!	!	!	!	!	!	!	!	!
0.D;;	-ta.	-men	-us.	0.d;<	-ta	-men	-us.	0.a;<	-ta.	-men	-us]	0.d;	.	-ta.	-men	-us	-mur.]]
==	==	==	==	==	==	==	==	==	==	==	==	==	==	==	==	==	==
*-	*-	*-	*-	*-	*-	*-	*-	*-	*-	*-	*-	*-	*-	*-	*-	*-	*-
!!!system-decoration: [s1,s2,s3,s4]
!!!RDF**kern: > = above
!!!RDF**kern: < = below
!!!ENC: Marta Lawrence
!!!END: 2021-04-09
!!!ENC: Katarzyna Serwa
!!!END: 2021-03-16
!!!YEC: Copyright 2022 Narodowy Instytut Fryderyka Chopina (https://polishscores.org)
!!!YEM: License CC-BY-4.0 (https://creativecommons.org/licenses/by/4.0)
